static/assets/template/assets/img/icons/essential/detailed/Medal.svg

<svg height="130" viewBox="0 0 151 130" width="151" xmlns="http://www.w3.org/2000/svg"><g fill="none" fill-rule="evenodd" transform="translate(2 1)"><path d="m91.7 54.1h-34.7l31.9-53.3h34.7z" fill-rule="nonzero"/><path d="m91.7 54.1h-30.6l29.9-49.2h30.6z" fill-rule="nonzero"/><path d="m91.7 54.1h-34.7l31.9-53.3h34.7z" stroke-linecap="round" stroke-linejoin="round" stroke-width="3"/><path d="m84.6 37.1-10.2 17" stroke-linecap="round" stroke-linejoin="round" stroke-width="3"/><path d="m99.3 12.5-9.8 16.4" stroke-linecap="round" stroke-linejoin="round" stroke-width="3"/><path d="m106.3.8-4.3 7.1" stroke-linecap="round" stroke-linejoin="round" stroke-width="3"/><path d="m51.7 54.1h34.7l-31.9-53.3h-34.7z" fill-rule="nonzero"/><path d="m57.8 54.1h28.6l-29.8-49.2h-28.6z" fill="#80b8ff" fill-rule="nonzero"/><path d="m27.4.8h-.6" stroke-linecap="round" stroke-linejoin="round" stroke-width="3"/><path d="m52.5 54.1h33.9l-31.9-53.3h-19.1" stroke-linecap="round" stroke-linejoin="round" stroke-width="3"/><path d="m22.7.8h-2.9l25.9 43.2" stroke-linecap="round" stroke-linejoin="round" stroke-width="3"/><path d="m66.1 49 3 5.1" stroke-linecap="round" stroke-linejoin="round" stroke-width="3"/><path d="m52.3 26 8.3 13.9" stroke-linecap="round" stroke-linejoin="round" stroke-width="3"/><path d="m48.4 19.6.5.7" stroke-linecap="round" stroke-linejoin="round" stroke-width="3"/><path d="m37.2.8 6.7 11.2" stroke-linecap="round" stroke-linejoin="round" stroke-width="3"/><circle cx="71.6" cy="87" fill-rule="nonzero" r="40.8"/><circle cx="74.8" cy="90.1" fill-rule="nonzero" r="37.6"/><path d="m76.2 68.1 4.6 9.4c.3.5.8.9 1.4 1l10.4 1.5c1.5.2 2.1 2.1 1 3.1l-7.5 7.3c-.4.4-.6 1-.5 1.6l1.8 10.3c.3 1.5-1.3 2.7-2.7 1.9l-9.3-4.9c-.5-.3-1.2-.3-1.7 0l-9.3 4.9c-1.4.7-2.9-.4-2.7-1.9l1.8-10.3c.1-.6-.1-1.2-.5-1.6l-7.5-7.3c-1.1-1.1-.5-2.9 1-3.1l10.4-1.5c.6-.1 1.1-.5 1.4-1l4.6-9.4c.7-1.4 2.6-1.4 3.3 0z" fill-rule="nonzero"/><g stroke-linecap="round" stroke-linejoin="round" stroke-width="3"><path d="m78.4 126.3c-1.9.3-3.8.4-5.8.4-22.5 0-40.8-18.3-40.8-40.8 0-10.3 3.8-19.7 10.1-26.9"/><path d="m85.9 124.5c-.1 0-.2.1-.4.1"/><path d="m51.1 51.4c6.3-3.9 13.6-6.2 21.6-6.2 22.5 0 40.8 18.3 40.8 40.8 0 16.1-9.3 29.9-22.8 36.6"/><path d="m47.2 66.5c.7-.9 1.5-1.8 2.3-2.7"/><path d="m40.7 88.4c-.1-.8-.1-1.6-.1-2.4 0-1.3.1-2.6.2-3.9"/><path d="m76.3 117.8c-.4 0-.8.1-1.3.1"/><path d="m104.5 89.1c-1.3 13.5-10.9 24.5-23.7 27.9"/><path d="m54.8 59.4c5.1-3.4 11.2-5.4 17.8-5.4 2.7 0 5.2.3 7.7.9"/><path d="m70.7 101.1-9.9 5.2c-1.2.6-2.7-.4-2.4-1.8l2.2-12.6c.1-.5-.1-1.1-.5-1.5l-9.2-8.9c-1-1-.4-2.6.9-2.8l1.7-.2"/><path d="m87.5 104.9c-.1 1.2-1.3 2-2.4 1.4l-9.1-4.8"/><path d="m71.4 64.5c.6-1.2 2.4-1.2 3 0l5.7 11.5c.2.5.7.8 1.3.9l12.7 1.8c1.4.2 1.9 1.9.9 2.8l-9.2 8.9c-.4.4-.6.9-.5 1.5l1.1 6.5"/><path d="m59.2 77.6 5.3-.8c.5-.1 1-.4 1.3-.9l1.4-2.8"/><path d="m124.9 88.7h21.9"/><path d="m124.9 74 17.8-11.2"/><path d="m135.7 110.2 2.5 1.6"/><path d="m124.9 103.5 5.4 3.4"/><path d="m2.4 88.7h-2.1"/><path d="m22.2 88.7h-13.6"/><path d="m12.5 67.9-2.3-1.4"/><path d="m22.2 74-4.2-2.7"/><path d="m22.2 103.5-17.8 11.2"/></g></g></svg>

<?xml version="1.0" encoding="UTF-8"?>
<svg width="151px" height="130px" viewBox="0 0 151 130" version="1.1" xmlns="http://www.w3.org/2000/svg" xmlns:xlink="http://www.w3.org/1999/xlink">
    <!-- Generator: Sketch 51.2 (57519) - http://www.bohemiancoding.com/sketch -->
    <title>Medal</title>
    <desc>Created with Sketch.</desc>
    <defs></defs>
    <g id="Page-1" stroke="none" stroke-width="1" fill="none" fill-rule="evenodd">
        <g id="Medal" transform="translate(2.000000, 1.000000)">
            <polygon id="Shape" class="fill-neutral" fill-rule="nonzero" points="91.7 54.1 57 54.1 88.9 0.8 123.6 0.8"></polygon>
            <polygon id="Shape" class="fill-primary-500" fill-rule="nonzero" points="91.7 54.1 61.1 54.1 91 4.9 121.6 4.9"></polygon>
            <polygon id="Shape" class="stroke-primary" stroke-width="3" stroke-linecap="round" stroke-linejoin="round" points="91.7 54.1 57 54.1 88.9 0.8 123.6 0.8"></polygon>
            <path d="M84.6,37.1 L74.4,54.1" id="Shape" class="stroke-primary" stroke-width="3" stroke-linecap="round" stroke-linejoin="round"></path>
            <path d="M99.3,12.5 L89.5,28.9" id="Shape" class="stroke-primary" stroke-width="3" stroke-linecap="round" stroke-linejoin="round"></path>
            <path d="M106.3,0.8 L102,7.9" id="Shape" class="stroke-primary" stroke-width="3" stroke-linecap="round" stroke-linejoin="round"></path>
            <polygon id="Shape" class="fill-neutral" fill-rule="nonzero" points="51.7 54.1 86.4 54.1 54.5 0.8 19.8 0.8"></polygon>
            <polygon id="Shape" fill="#80B8FF" fill-rule="nonzero" points="57.8 54.1 86.4 54.1 56.6 4.9 28 4.9"></polygon>
            <path d="M27.4,0.8 L26.8,0.8" id="Shape" class="stroke-primary" stroke-width="3" stroke-linecap="round" stroke-linejoin="round"></path>
            <polyline id="Shape" class="stroke-primary" stroke-width="3" stroke-linecap="round" stroke-linejoin="round" points="52.5 54.1 86.4 54.1 54.5 0.8 35.4 0.8"></polyline>
            <polyline id="Shape" class="stroke-primary" stroke-width="3" stroke-linecap="round" stroke-linejoin="round" points="22.7 0.8 19.8 0.8 45.7 44"></polyline>
            <path d="M66.1,49 L69.1,54.1" id="Shape" class="stroke-primary" stroke-width="3" stroke-linecap="round" stroke-linejoin="round"></path>
            <path d="M52.3,26 L60.6,39.9" id="Shape" class="stroke-primary" stroke-width="3" stroke-linecap="round" stroke-linejoin="round"></path>
            <path d="M48.4,19.6 L48.9,20.3" id="Shape" class="stroke-primary" stroke-width="3" stroke-linecap="round" stroke-linejoin="round"></path>
            <path d="M37.2,0.8 L43.9,12" id="Shape" class="stroke-primary" stroke-width="3" stroke-linecap="round" stroke-linejoin="round"></path>
            <circle id="Oval" class="fill-neutral" fill-rule="nonzero" cx="71.6" cy="87" r="40.8"></circle>
            <circle id="Oval" class="fill-primary-100" fill-rule="nonzero" cx="74.8" cy="90.1" r="37.6"></circle>
            <path d="M76.2,68.1 L80.8,77.5 C81.1,78 81.6,78.4 82.2,78.5 L92.6,80 C94.1,80.2 94.7,82.1 93.6,83.1 L86.1,90.4 C85.7,90.8 85.5,91.4 85.6,92 L87.4,102.3 C87.7,103.8 86.1,105 84.7,104.2 L75.4,99.3 C74.9,99 74.2,99 73.7,99.3 L64.4,104.2 C63,104.9 61.5,103.8 61.7,102.3 L63.5,92 C63.6,91.4 63.4,90.8 63,90.4 L55.5,83.1 C54.4,82 55,80.2 56.5,80 L66.9,78.5 C67.5,78.4 68,78 68.3,77.5 L72.9,68.1 C73.6,66.7 75.5,66.7 76.2,68.1 Z" id="Shape" class="fill-neutral" fill-rule="nonzero"></path>
            <path d="M78.4,126.3 C76.5,126.6 74.6,126.7 72.6,126.7 C50.1,126.7 31.8,108.4 31.8,85.9 C31.8,75.6 35.6,66.2 41.9,59" id="Shape" class="stroke-primary" stroke-width="3" stroke-linecap="round" stroke-linejoin="round"></path>
            <path d="M85.9,124.5 C85.8,124.5 85.7,124.6 85.5,124.6" id="Shape" class="stroke-primary" stroke-width="3" stroke-linecap="round" stroke-linejoin="round"></path>
            <path d="M51.1,51.4 C57.4,47.5 64.7,45.2 72.7,45.2 C95.2,45.2 113.5,63.5 113.5,86 C113.5,102.1 104.2,115.9 90.7,122.6" id="Shape" class="stroke-primary" stroke-width="3" stroke-linecap="round" stroke-linejoin="round"></path>
            <path d="M47.2,66.5 C47.9,65.6 48.7,64.7 49.5,63.8" id="Shape" class="stroke-primary-300" stroke-width="3" stroke-linecap="round" stroke-linejoin="round"></path>
            <path d="M40.7,88.4 C40.6,87.6 40.6,86.8 40.6,86 C40.6,84.7 40.7,83.4 40.8,82.1" id="Shape" class="stroke-primary-300" stroke-width="3" stroke-linecap="round" stroke-linejoin="round"></path>
            <path d="M76.3,117.8 C75.9,117.8 75.5,117.9 75,117.9" id="Shape" class="stroke-primary-300" stroke-width="3" stroke-linecap="round" stroke-linejoin="round"></path>
            <path d="M104.5,89.1 C103.2,102.6 93.6,113.6 80.8,117" id="Shape" class="stroke-primary-300" stroke-width="3" stroke-linecap="round" stroke-linejoin="round"></path>
            <path d="M54.8,59.4 C59.9,56 66,54 72.6,54 C75.3,54 77.8,54.3 80.3,54.9" id="Shape" class="stroke-primary-300" stroke-width="3" stroke-linecap="round" stroke-linejoin="round"></path>
            <path d="M70.7,101.1 L60.8,106.3 C59.6,106.9 58.1,105.9 58.4,104.5 L60.6,91.9 C60.7,91.4 60.5,90.8 60.1,90.4 L50.9,81.5 C49.9,80.5 50.5,78.9 51.8,78.7 L53.5,78.5" id="Shape" class="stroke-primary" stroke-width="3" stroke-linecap="round" stroke-linejoin="round"></path>
            <path d="M87.5,104.9 C87.4,106.1 86.2,106.9 85.1,106.3 L76,101.5" id="Shape" class="stroke-primary" stroke-width="3" stroke-linecap="round" stroke-linejoin="round"></path>
            <path d="M71.4,64.5 C72,63.3 73.8,63.3 74.4,64.5 L80.1,76 C80.3,76.5 80.8,76.8 81.4,76.9 L94.1,78.7 C95.5,78.9 96,80.6 95,81.5 L85.8,90.4 C85.4,90.8 85.2,91.3 85.3,91.9 L86.4,98.4" id="Shape" class="stroke-primary" stroke-width="3" stroke-linecap="round" stroke-linejoin="round"></path>
            <path d="M59.2,77.6 L64.5,76.8 C65,76.7 65.5,76.4 65.8,75.9 L67.2,73.1" id="Shape" class="stroke-primary" stroke-width="3" stroke-linecap="round" stroke-linejoin="round"></path>
            <path d="M124.9,88.7 L146.8,88.7" id="Shape" class="stroke-primary-300" stroke-width="3" stroke-linecap="round" stroke-linejoin="round"></path>
            <path d="M124.9,74 L142.7,62.8" id="Shape" class="stroke-primary-300" stroke-width="3" stroke-linecap="round" stroke-linejoin="round"></path>
            <path d="M135.7,110.2 L138.2,111.8" id="Shape" class="stroke-primary-300" stroke-width="3" stroke-linecap="round" stroke-linejoin="round"></path>
            <path d="M124.9,103.5 L130.3,106.9" id="Shape" class="stroke-primary-300" stroke-width="3" stroke-linecap="round" stroke-linejoin="round"></path>
            <path d="M2.4,88.7 L0.3,88.7" id="Shape" class="stroke-primary-300" stroke-width="3" stroke-linecap="round" stroke-linejoin="round"></path>
            <path d="M22.2,88.7 L8.6,88.7" id="Shape" class="stroke-primary-300" stroke-width="3" stroke-linecap="round" stroke-linejoin="round"></path>
            <path d="M12.5,67.9 L10.2,66.5" id="Shape" class="stroke-primary-300" stroke-width="3" stroke-linecap="round" stroke-linejoin="round"></path>
            <path d="M22.2,74 L18,71.3" id="Shape" class="stroke-primary-300" stroke-width="3" stroke-linecap="round" stroke-linejoin="round"></path>
            <path d="M22.2,103.5 L4.4,114.7" id="Shape" class="stroke-primary-300" stroke-width="3" stroke-linecap="round" stroke-linejoin="round"></path>
        </g>
    </g>
</svg>
